public/avatar/body/77.svg

<svg xmlns:xlink="http://www.w3.org/1999/xlink" height="82" width="84.85" xmlns="http://www.w3.org/2000/svg"><g transform="translate(37.4 42.25)"><use height="38" transform="translate(-11.95 -17.45)" width="32.05" xlink:href="#a"/><use height="38.95" transform="translate(-12.45 -17.95)" width="33.05" xlink:href="#b"/><use height="23.15" transform="translate(-15 -1)" width="38.15" xlink:href="#c"/></g><defs><path d="M27.35 7.4q2.15 4.15 3.55 8.75 1.45 4.7 1.15 9.5-.35 4.95-4.2 8.1-3.8 3.2-8.75 4.05l-2.6.2q-3.6 0-7.05-1.15-4.65-1.6-7.1-5.5Q-.2 27.4.05 23q.2-4.4 2-9.3Q3.85 8.75 7 5.05 10.1 1.3 14.7.1l1.8-.1q1.9.05 3.7.8 4.75 2.05 7.15 6.6" fill="#e4c9a0" fill-rule="evenodd" transform="translate(-.05)" id="d"/><path d="M27.35 7.4Q24.95 2.85 20.2.8 17.55-.3 14.7.1 10.1 1.3 7 5.05q-3.15 3.7-4.95 8.65-1.8 4.9-2 9.3-.25 4.4 2.3 8.35 2.45 3.9 7.1 5.5 4.65 1.55 9.65.95 4.95-.85 8.75-4.05 3.85-3.15 4.2-8.1.3-4.8-1.15-9.5-1.4-4.6-3.55-8.75Z" fill="none" stroke="#1a1a1a" stroke-linecap="round" stroke-linejoin="round" transform="translate(.45 .5)" id="e"/><use height="38" width="32.05" xlink:href="#d" id="a"/><use height="38.95" width="33.05" xlink:href="#e" id="b"/><g id="c"><path d="m20.7 4.85.5.2-1.35 1.9.1 5.35v4.6q-6.8 4.4-13.9 4.75H4.6l.55-1.4.1-.15q.5-.85.25-1.65l-.7-1.7-.8-1.7v-.45l.7-1.85q.35-.9.25-2.05 8.25.25 15.75-5.85M2.8 21.4q-7.4.1-13.9-2.8V8.5l-2.05-2.7.75-.35q6.5 5.6 15.85 5.3L2.6 13q-.4.85-.4 1.8-.05.65.3 1.2l.95 1.45q.55.8.3 1.75l-.3.9-.05.15-.6 1.15m13.6-9.6 3.45-4.85-3.45 4.85m-24.35.9-3.15-4.2 3.15 4.2" fill="#435032" fill-rule="evenodd" transform="translate(15 1)"/><path d="M4 7.4q8.4-.35 15.4-7.05l1.85-.85.55 2.1.55-.25.3 2.8-1.95.7q-7.5 6.1-15.75 5.85l-.8.3-.7-.25q-9.35.3-15.85-5.3l-2.1-.7V1.9l1.45.55v-2.8l1.55 1.4q6.85 6.5 15.45 6.35H4m.2 1.4-.25-.1.05.15.2-.05q9 .15 17.6-7.2-8.6 7.35-17.6 7.2m-17.25-6.35q7.55 7 17 6.25V7.4v1.3q-9.45.75-17-6.25M4 8.85v.65l.15 1.5L4 9.5v-.65" fill="#660" fill-rule="evenodd" transform="translate(15 1)"/><path d="m4.2 8.8-.2.05-.05-.15.25.1" fill="#ffe085" fill-rule="evenodd" transform="translate(15 1)"/><path d="M4.6 21.65h-.95l-.85-.25.6-1.15.05-.15.3-.9q.25-.95-.3-1.75L2.5 16q-.35-.55-.3-1.2 0-.95.4-1.8l.85-2.25.7.25.8-.3q.1 1.15-.25 2.05L4 14.6v.45l.8 1.7.7 1.7q.25.8-.25 1.65l-.1.15-.55 1.4" fill="#ccc" fill-rule="evenodd" transform="translate(15 1)"/><path d="M4 7.4q8.4-.35 15.4-7.05l1.85-.85.55 2.1.55-.25.3 2.8-1.95.7.5.2-1.35 1.9.1 5.35v4.6q-6.8 4.4-13.9 4.75h-2.4l-.85-.25q-7.4.1-13.9-2.8V8.5l-2.05-2.7.75-.35-2.1-.7V1.9l1.45.55v-2.8l1.55 1.4q6.85 6.5 15.45 6.35H4m15.85-.45L16.4 11.8m-12.2-3-.25-.1.05.15.2-.05q9 .15 17.6-7.2M3.95 7.4v1.3q-9.45.75-17-6.25m18 8.25-.8.3-.7-.25q-9.35.3-15.85-5.3M4.15 11 4 9.5v-.65m.95 1.85q8.25.25 15.75-5.85M-11.1 8.5l3.15 4.2" fill="none" stroke="#000" stroke-linecap="round" stroke-linejoin="round" transform="translate(15 1)"/><path d="M3.45 10.75 2.6 13q-.4.85-.4 1.8-.05.65.3 1.2l.95 1.45q.55.8.3 1.75l-.3.9-.05.15-.6 1.15m1.8.25.55-1.4.1-.15q.5-.85.25-1.65l-.7-1.7-.8-1.7v-.45l.7-1.85q.35-.9.25-2.05" fill="none" stroke="#666" stroke-linecap="round" stroke-linejoin="round" transform="translate(15 1)"/><path d="m4.9 7.6.9 6-4.65-.9L2.8 7.6h2.1" fill="#ccc" fill-rule="evenodd" transform="translate(15 1)"/><path d="m4.9 7.6.9 6-4.65-.9L2.8 7.6h2.1Z" fill="none" stroke="#666" stroke-linecap="round" stroke-linejoin="round" transform="translate(15 1)"/><path d="M9.75 18v-2.5l-1.3-1.8h1.85l1.25-1.95 1.4 2.05H15l-1.75 1.75.5 2.55-2.2-1.85L9.75 18" fill="red" fill-rule="evenodd" transform="translate(15 1)"/></g></defs></svg>

<?xml version="1.0" encoding="UTF-8" standalone="no"?>
<svg xmlns:xlink="http://www.w3.org/1999/xlink" height="82.0px" width="84.85px" xmlns="http://www.w3.org/2000/svg">
  <g transform="matrix(1.0, 0.0, 0.0, 1.0, 37.4, 42.25)">
    <use height="38.0" transform="matrix(1.0, 0.0, 0.0, 1.0, -11.95, -17.45)" width="32.05" xlink:href="#sprite0"/>
    <use height="38.95" transform="matrix(1.0, 0.0, 0.0, 1.0, -12.45, -17.95)" width="33.05" xlink:href="#sprite1"/>
    <use height="23.15" transform="matrix(1.0, 0.0, 0.0, 1.0, -15.0, -1.0)" width="38.15" xlink:href="#shape2"/>
  </g>
  <defs>
    <g id="sprite0" transform="matrix(1.0, 0.0, 0.0, 1.0, -0.05, 0.0)">
      <use height="38.0" transform="matrix(1.0, 0.0, 0.0, 1.0, 0.05, 0.0)" width="32.05" xlink:href="#shape0"/>
    </g>
    <g id="shape0" transform="matrix(1.0, 0.0, 0.0, 1.0, -0.05, 0.0)">
      <path d="M27.35 7.4 Q29.5 11.55 30.9 16.15 32.35 20.85 32.05 25.65 31.7 30.6 27.85 33.75 24.05 36.95 19.1 37.8 L16.5 38.0 Q12.9 38.0 9.45 36.85 4.8 35.25 2.35 31.35 -0.2 27.4 0.05 23.0 0.25 18.6 2.05 13.7 3.85 8.75 7.0 5.05 10.1 1.3 14.7 0.1 L16.5 0.0 Q18.4 0.05 20.2 0.8 24.95 2.85 27.35 7.4" fill="#e4c9a0" fill-rule="evenodd" stroke="none"/>
    </g>
    <g id="sprite1" transform="matrix(1.0, 0.0, 0.0, 1.0, 0.45, 0.5)">
      <use height="38.95" transform="matrix(1.0, 0.0, 0.0, 1.0, -0.45, -0.5)" width="33.05" xlink:href="#shape1"/>
    </g>
    <g id="shape1" transform="matrix(1.0, 0.0, 0.0, 1.0, 0.45, 0.5)">
      <path d="M27.35 7.4 Q24.95 2.85 20.2 0.8 17.55 -0.3 14.7 0.1 10.1 1.3 7.0 5.05 3.85 8.75 2.05 13.7 0.25 18.6 0.05 23.0 -0.2 27.4 2.35 31.35 4.8 35.25 9.45 36.85 14.1 38.4 19.1 37.8 24.05 36.95 27.85 33.75 31.7 30.6 32.05 25.65 32.35 20.85 30.9 16.15 29.5 11.55 27.35 7.4 Z" fill="none" stroke="#1a1a1a" stroke-linecap="round" stroke-linejoin="round" stroke-width="1.0"/>
    </g>
    <g id="shape2" transform="matrix(1.0, 0.0, 0.0, 1.0, 15.0, 1.0)">
      <path d="M20.7 4.85 L21.2 5.05 19.85 6.95 19.95 12.3 19.95 16.9 Q13.15 21.3 6.05 21.65 L4.6 21.65 5.15 20.25 5.25 20.1 Q5.75 19.25 5.5 18.45 L4.8 16.75 4.0 15.05 4.0 14.6 4.7 12.75 Q5.05 11.85 4.95 10.7 13.2 10.95 20.7 4.85 M2.8 21.4 Q-4.6 21.5 -11.1 18.6 L-11.1 8.5 -13.15 5.8 -12.4 5.45 Q-5.9 11.05 3.45 10.75 L2.6 13.0 Q2.2 13.85 2.2 14.8 2.15 15.45 2.5 16.0 L3.45 17.45 Q4.0 18.25 3.75 19.2 L3.45 20.1 3.4 20.25 2.8 21.4 M16.4 11.8 L19.85 6.95 16.4 11.8 M-7.95 12.7 L-11.1 8.5 -7.95 12.7" fill="#435032" fill-rule="evenodd" stroke="none"/>
      <path d="M4.0 7.4 Q12.4 7.05 19.4 0.35 L21.25 -0.5 21.8 1.6 22.35 1.35 22.65 4.15 20.7 4.85 Q13.2 10.95 4.95 10.7 L4.15 11.0 3.45 10.75 Q-5.9 11.05 -12.4 5.45 L-14.5 4.75 -14.5 1.9 -13.05 2.45 -13.05 -0.35 -11.5 1.05 Q-4.65 7.55 3.95 7.4 L4.0 7.4 M4.2 8.8 L3.95 8.7 4.0 8.85 4.2 8.8 Q13.2 8.95 21.8 1.6 13.2 8.95 4.2 8.8 M-13.05 2.45 Q-5.5 9.45 3.95 8.7 L3.95 7.4 3.95 8.7 Q-5.5 9.45 -13.05 2.45 M4.0 8.85 L4.0 9.5 4.15 11.0 4.0 9.5 4.0 8.85" fill="#666600" fill-rule="evenodd" stroke="none"/>
      <path d="M4.2 8.8 L4.0 8.85 3.95 8.7 4.2 8.8" fill="#ffe085" fill-rule="evenodd" stroke="none"/>
      <path d="M4.6 21.65 L3.65 21.65 2.8 21.4 3.4 20.25 3.45 20.1 3.75 19.2 Q4.0 18.25 3.45 17.45 L2.5 16.0 Q2.15 15.45 2.2 14.8 2.2 13.85 2.6 13.0 L3.45 10.75 4.15 11.0 4.95 10.7 Q5.05 11.85 4.7 12.75 L4.0 14.6 4.0 15.05 4.8 16.75 5.5 18.45 Q5.75 19.25 5.25 20.1 L5.15 20.25 4.6 21.65" fill="#cccccc" fill-rule="evenodd" stroke="none"/>
      <path d="M4.0 7.4 Q12.4 7.05 19.4 0.35 L21.25 -0.5 21.8 1.6 22.35 1.35 22.65 4.15 20.7 4.85 21.2 5.05 19.85 6.95 19.95 12.3 19.95 16.9 Q13.15 21.3 6.05 21.65 L4.6 21.65 3.65 21.65 2.8 21.4 Q-4.6 21.5 -11.1 18.6 L-11.1 8.5 -13.15 5.8 -12.4 5.45 -14.5 4.75 -14.5 1.9 -13.05 2.45 -13.05 -0.35 -11.5 1.05 Q-4.65 7.55 3.95 7.4 L4.0 7.4 M19.85 6.95 L16.4 11.8 M4.2 8.8 L3.95 8.7 4.0 8.85 4.2 8.8 Q13.2 8.95 21.8 1.6 M3.95 7.4 L3.95 8.7 Q-5.5 9.45 -13.05 2.45 M4.95 10.7 L4.15 11.0 3.45 10.75 Q-5.9 11.05 -12.4 5.45 M4.15 11.0 L4.0 9.5 4.0 8.85 M4.95 10.7 Q13.2 10.95 20.7 4.85 M-11.1 8.5 L-7.95 12.7" fill="none" stroke="#000000" stroke-linecap="round" stroke-linejoin="round" stroke-width="1.0"/>
      <path d="M3.45 10.75 L2.6 13.0 Q2.2 13.85 2.2 14.8 2.15 15.45 2.5 16.0 L3.45 17.45 Q4.0 18.25 3.75 19.2 L3.45 20.1 3.4 20.25 2.8 21.4 M4.6 21.65 L5.15 20.25 5.25 20.1 Q5.75 19.25 5.5 18.45 L4.8 16.75 4.0 15.05 4.0 14.6 4.7 12.75 Q5.05 11.85 4.95 10.7" fill="none" stroke="#666666" stroke-linecap="round" stroke-linejoin="round" stroke-width="1.0"/>
      <path d="M4.9 7.6 L5.8 13.6 1.15 12.7 2.8 7.6 4.9 7.6" fill="#cccccc" fill-rule="evenodd" stroke="none"/>
      <path d="M4.9 7.6 L5.8 13.6 1.15 12.7 2.8 7.6 4.9 7.6 Z" fill="none" stroke="#666666" stroke-linecap="round" stroke-linejoin="round" stroke-width="1.0"/>
      <path d="M9.75 18.0 L9.75 15.5 8.45 13.7 10.3 13.7 11.55 11.75 12.95 13.8 15.0 13.8 13.25 15.55 13.75 18.1 11.55 16.25 9.75 18.0" fill="#ff0000" fill-rule="evenodd" stroke="none"/>
    </g>
  </defs>
</svg>
